svg/24/logo-windows.svg

<svg width="24" height="24" viewBox="0 0 24 24" fill="currentColor" xmlns="http://www.w3.org/2000/svg"><path d="M3 2.99988H11.532V11.5318H3V2.99988Z"/><path d="M12.468 2.99996H21V11.5319H12.468V2.99996Z"/><path d="M11.532 12.4688H3V21.0008H11.532V12.4688Z"/><path d="M12.468 12.4688H21V21.0008H12.468V12.4688Z"/></svg>

<svg xmlns="http://www.w3.org/2000/svg" width="24" height="24" fill="currentColor" viewBox="0 0 24 24">
  <path d="M3 3h8.532v8.532H3V3Zm9.468 0H21v8.532h-8.532V3Zm-.936 9.469H3V21h8.532v-8.532Zm.936 0H21V21h-8.532v-8.532Z"/>
</svg>
